packages/kaspersky-hexa-ui-icons/src/iconsSVGs/48/MediaStorage.svg

<svg width="48" height="48" viewBox="0 0 48 48" fill="none" xmlns="http://www.w3.org/2000/svg">
<path fill-rule="evenodd" clip-rule="evenodd" d="M36 9V11H34V9H36ZM30 9V11H32V9H30ZM34 22V24H36V22H34ZM30 22V24H32V22H30ZM42 2H17.92C18.5951 2.59806 19.2021 3.26879 19.73 4H40V15H21.3C21.061 15.6958 20.7528 16.3658 20.38 17H40V28H8.00002V22.82C7.31964 22.7045 6.65049 22.5305 6.00002 22.3V30H42V2ZM1.38002 43.08C1.13852 42.9705 0.861512 42.9705 0.620017 43.08C0.498832 43.1306 0.387218 43.2017 0.290017 43.29C0.10283 43.4787 -0.00152002 43.7342 1.67363e-05 44C0.00159672 44.1307 0.0287758 44.2598 0.0800167 44.38C0.170941 44.6312 0.368786 44.8291 0.620017 44.92C0.862057 45.027 1.13798 45.027 1.38002 44.92C1.63125 44.8291 1.82909 44.6312 1.92002 44.38C1.97126 44.2598 1.99844 44.1307 2.00002 44C1.99633 43.7352 1.89275 43.4816 1.71002 43.29C1.61282 43.2017 1.5012 43.1306 1.38002 43.08ZM13 43C12.4477 43 12 43.4477 12 44C12 44.5523 12.4477 45 13 45C13.5523 45 14 44.5523 14 44C14 43.4477 13.5523 43 13 43ZM5.00002 43C4.44773 43 4.00002 43.4477 4.00002 44C4.00002 44.5523 4.44773 45 5.00002 45C5.5523 45 6.00002 44.5523 6.00002 44C6.00002 43.4477 5.5523 43 5.00002 43ZM9.00002 43C8.44773 43 8.00002 43.4477 8.00002 44C8.00002 44.5523 8.44773 45 9.00002 45C9.5523 45 10 44.5523 10 44C10 43.4477 9.5523 43 9.00002 43ZM17 43C16.4477 43 16 43.4477 16 44C16 44.5523 16.4477 45 17 45C17.5523 45 18 44.5523 18 44C18 43.4477 17.5523 43 17 43ZM31 43C30.4477 43 30 43.4477 30 44C30 44.5523 30.4477 45 31 45C31.5523 45 32 44.5523 32 44C32 43.4477 31.5523 43 31 43ZM43 43C42.4477 43 42 43.4477 42 44C42 44.5523 42.4477 45 43 45C43.5523 45 44 44.5523 44 44C44 43.4477 43.5523 43 43 43ZM39 43C38.4477 43 38 43.4477 38 44C38 44.5523 38.4477 45 39 45C39.5523 45 40 44.5523 40 44C40 43.4477 39.5523 43 39 43ZM35 43C34.4477 43 34 43.4477 34 44C34 44.5523 34.4477 45 35 45C35.5523 45 36 44.5523 36 44C36 43.4477 35.5523 43 35 43ZM47.92 43.62C47.8694 43.4964 47.7946 43.3842 47.7 43.29C47.6079 43.2 47.4992 43.1287 47.38 43.08C47.1366 42.98 46.8635 42.98 46.62 43.08C46.4964 43.1258 46.3839 43.1974 46.29 43.29C46.1073 43.4816 46.0037 43.7352 46 44C46.0016 44.1307 46.0288 44.2598 46.08 44.38C46.1307 44.5012 46.2017 44.6128 46.29 44.71C46.4787 44.8972 46.7342 45.0015 47 45C47.2624 44.9989 47.5138 44.8947 47.7 44.71C47.8909 44.5229 47.9989 44.2672 48 44C48.0034 43.8688 47.976 43.7387 47.92 43.62ZM24 36C23.4477 36 23 36.4477 23 37C23 37.5523 23.4477 38 24 38C24.5523 38 25 37.5523 25 37C25 36.4477 24.5523 36 24 36ZM24 32C23.4477 32 23 32.4477 23 33C23 33.5523 23.4477 34 24 34C24.5523 34 25 33.5523 25 33C25 32.4477 24.5523 32 24 32ZM28 44C28 46.2091 26.2092 48 24 48C21.7909 48 20 46.2091 20 44C20 41.7909 21.7909 40 24 40C26.2092 40 28 41.7909 28 44ZM26 44C26 42.8954 25.1046 42 24 42C22.8954 42 22 42.8954 22 44C22 45.1046 22.8954 46 24 46C25.1046 46 26 45.1046 26 44ZM10 21C4.47717 21 1.67363e-05 16.5228 1.67363e-05 11C1.67363e-05 5.47715 4.47717 1 10 1C15.5229 1 20 5.47715 20 11C20 16.5228 15.5229 21 10 21ZM10 19C14.4183 19 18 15.4183 18 11C18 6.58172 14.4183 3 10 3C5.58174 3 2.00002 6.58172 2.00002 11C2.00002 15.4183 5.58174 19 10 19ZM14.29 12.23L9.29002 15.23C9.058 15.3811 8.78688 15.461 8.51002 15.46C8.26211 15.4596 8.01817 15.3977 7.80002 15.28C7.31778 15.0262 7.01703 14.5249 7.02002 13.98V8C7.0219 7.4596 7.31817 6.96318 7.79291 6.70499C8.26764 6.4468 8.84537 6.46789 9.30002 6.76L14.22 9.76C14.6439 10.0299 14.9005 10.4975 14.9005 11C14.9005 11.5025 14.6439 11.9701 14.22 12.24L14.29 12.23ZM12.47 11L9.05002 8.91V13.09L12.47 11Z"  fill="currentColor"/>
</svg>

<svg xmlns="http://www.w3.org/2000/svg" width="48" height="48" fill="none" viewBox="0 0 48 48"><path fill="currentColor" fill-rule="evenodd" d="M36 9v2h-2V9zm-6 0v2h2V9zm4 13v2h2v-2zm-4 0v2h2v-2zM42 2H17.92a12.26 12.26 0 0 1 1.81 2H40v11H21.3a11 11 0 0 1-.92 2H40v11H8v-5.18a12 12 0 0 1-2-.52V30h36zM1.38 43.08a.92.92 0 0 0-.76 0 1.15 1.15 0 0 0-.33.21A1 1 0 0 0 0 44a1 1 0 0 0 .08.38.9.9 0 0 0 .54.54c.242.107.518.107.76 0a.9.9 0 0 0 .54-.54A1 1 0 0 0 2 44a1.05 1.05 0 0 0-.29-.71 1.15 1.15 0 0 0-.33-.21M13 43c-.5523 0-1 .4477-1 1s.4477 1 1 1 1-.4477 1-1-.4477-1-1-1m-8 0c-.5523 0-1 .4477-1 1s.4477 1 1 1 1-.4477 1-1-.4477-1-1-1m4 0c-.5523 0-1 .4477-1 1s.4477 1 1 1 1-.4477 1-1-.4477-1-1-1m8 0c-.5523 0-1 .4477-1 1s.4477 1 1 1 1-.4477 1-1-.4477-1-1-1m14 0c-.5523 0-1 .4477-1 1s.4477 1 1 1 1-.4477 1-1-.4477-1-1-1m12 0c-.5523 0-1 .4477-1 1s.4477 1 1 1 1-.4477 1-1-.4477-1-1-1m-4 0c-.5523 0-1 .4477-1 1s.4477 1 1 1 1-.4477 1-1-.4477-1-1-1m-4 0c-.5523 0-1 .4477-1 1s.4477 1 1 1 1-.4477 1-1-.4477-1-1-1m12.92.62a1 1 0 0 0-.22-.33 1 1 0 0 0-.32-.21c-.2434-.1-.5165-.1-.76 0a.93.93 0 0 0-.33.21A1.05 1.05 0 0 0 46 44a1 1 0 0 0 .08.38c.0507.1212.1217.2328.21.33A1 1 0 0 0 47 45a1 1 0 0 0 .7-.29A1 1 0 0 0 48 44a.84.84 0 0 0-.08-.38M24 36c-.5523 0-1 .4477-1 1s.4477 1 1 1 1-.4477 1-1-.4477-1-1-1m0-4c-.5523 0-1 .4477-1 1s.4477 1 1 1 1-.4477 1-1-.4477-1-1-1m4 12c0 2.2091-1.7908 4-4 4-2.2091 0-4-1.7909-4-4s1.7909-4 4-4 4 1.7909 4 4m-2 0c0-1.1046-.8954-2-2-2s-2 .8954-2 2 .8954 2 2 2 2-.8954 2-2M10 21C4.4772 21 0 16.5228 0 11S4.4772 1 10 1s10 4.4772 10 10-4.4771 10-10 10m0-2c4.4183 0 8-3.5817 8-8s-3.5817-8-8-8-8 3.5817-8 8 3.5817 8 8 8m4.29-6.77-5 3a1.42 1.42 0 0 1-.78.23 1.5 1.5 0 0 1-.71-.18 1.46 1.46 0 0 1-.78-1.3V8A1.48 1.48 0 0 1 9.3 6.76l4.92 3a1.47 1.47 0 0 1 0 2.48zM12.47 11 9.05 8.91v4.18z" clip-rule="evenodd"/></svg>
